X: 29247
T: New Langolee
R: jig
M: 6/8
K: Dmajor
(d/B/)|(AB).d (de).f|(gb).a (gf).e|(fd).B (A>B).d|(f>g).e d2 (d/B/)|
(AB).d (d>e).f|(gb).a (gf).e|(fd).B (A>B).d|(f>ge) .d2||
.d|(df).a (a>f).a|(g>a).b (af).d|(df).a (b>c').d'|(d>ed) (dB).A|
.g>.g.g (g<f)f|(e>d).e (fd).B|(d>B).A (AB).d|(f>g).e d2||

